!!!!SEGMENT: pl-sa--240-a-vi-44--003_sacchini-antonio--symphonia-toni-d-allegro.krn
!!!cenid: 17xx:661
!!!COM: Sacchini, Antonio
!!!COM-rismid: pe30002777
!!!CDT: 1730/06/14-1786/10/06
!!!CNT: Italian
!!!OPR: Symphonia toni D
!!!OTL: Allegro
!!!OMV: 003
!!!PDT:
!!!AGN: Secular
!!!SMS-siglum: PL-SA
!!!SMS-shelfmark: 240/A VI 44
!!!SMS-shelfwork: 001-003 M
!!!SMS-variant:
!!!SMS-altvar:
!!!NIFC-rismid: 1001035313
!!!URL-scan: http://bc.bdsandomierz.pl/dlibra/publication/1592/edition/1560/content
!!!ONB-nifc: UWAGA: części Symphonii: Allegro spirituoso, Andante, Allegro
!!!key:
**kern	**dynam	**kern	**dynam	**kern	**dynam	**kern	**dynam	**kern	**kern	**kern	**kern
*part8	*part8	*part7	*part7	*part6	*part6	*part5	*part5	*part4	*part3	*part2	*part1
*	*	*group3	*	*group3	*	*group3	*	*group2	*group2	*group1	*group1
*staff8	*	*staff7	*	*staff6	*	*staff5	*	*staff4	*staff3	*staff2	*staff1
*Iempty	*	*Iviola	*	*Ivioln	*	*Ivioln	*	*Iempty	*Icor	*Ioboe	*Ioboe
*I"Fundamento	*	*I"Viola obligata	*	*I"Violino Secundo	*	*I"Violino Primo	*	*I"Cornu Secondo ex D	*I"Corno Primo.	*I"Oboi 2da	*I"Oboi 1ma
*I'org	*	*I'vla	*	*I'vl II	*	*I'vl I	*	*I'cor II	*I'cor I	*I'ob II	*I'ob I
*clefF4	*	*clefC3	*	*clefG2	*	*clefG2	*	*clefG2	*clefG2	*clefG2	*clefG2
*	*	*	*	*	*	*	*	*ITrd6c10	*ITrd6c10	*	*
*k[f#c#]	*	*k[f#c#]	*	*k[f#c#]	*	*k[f#c#]	*	*k[f#c#]	*k[f#c#]	*k[f#c#]	*k[]
*D:	*	*D:	*	*D:	*	*D:	*	*D:	*D:	*D:	*D:
*M3/8	*	*M3/8	*	*M3/8	*	*M3/8	*	*M3/8	*M3/8	*M3/8	*M3/8
=1	=1	=1	=1	=1	=1	=1	=1	=1	=1	=1	=1
!LO:TX:a:i:t=Allo	!	!LO:TX:a:i:t=Allo	!	!LO:TX:a:i:t=Allegro	!	!LO:TX:a:i:t=Allegro	!	!LO:TX:a:i:t=Allo	!LO:TX:a:i:t=Allo	!LO:TX:a:i:t=Allo	!LO:TX:a:i:t=Allo
!LO:TX:a:t=P:problem=krzyżyki jeden nad drugim	!	!	!	!	!	!	!	!	!	!	!LO:TX:t=P:problem=brak znaków przykluczowych w źródle
8D\L	.	8f#\L	.	4.dd 4.d/	.	4.dd 4.d/	.	4.D/	4.d\	4.dd\	4.dd\
8E\	.	8g\	.	.	.	.	.	.	.	.	.
8F#\J	.	8a\J	.	.	.	.	.	.	.	.	.
=2	=2	=2	=2	=2	=2	=2	=2	=2	=2	=2	=2
8C#/L	.	8e\L	.	4.aa 4.a/	.	4.aa 4.a/	.	4.A/	4.a\	4.aa\	4.aa\
8BB/	.	8d\	.	.	.	.	.	.	.	.	.
8AA/J	.	8c#\J	.	.	.	.	.	.	.	.	.
=3	=3	=3	=3	=3	=3	=3	=3	=3	=3	=3	=3
!	!	!	!	!	!	!	!	!	!	!	!LO:SIC:s=8ff#:v
8D\	.	8d\	.	8ff#\L	.	8ff#\L	.	8d\	8f#\	8ff#\L	8ff\L
8r	.	8r	.	8dd\	.	8dd\	.	8r	8r	8dd\	8dd\
8r	.	8r	.	8aa\J	.	8aa\J	.	8r	8r	8aa\J	8aa\J
=4	=4	=4	=4	=4	=4	=4	=4	=4	=4	=4	=4
!	!	!	!	!	!	!	!	!	!	!	!LO:SIC:s=8ff#:v
8D\	.	8d\	.	8ff#\L	.	8ff#\L	.	8d\	8f#\	8ff#\L	8ff\L
8r	.	8r	.	8dd\	.	8dd\	.	8r	8r	8dd\	8dd\
8r	.	8r	.	8aa\J	.	8aa\J	.	8r	8r	8aa\J	8aa\J
=5	=5	=5	=5	=5	=5	=5	=5	=5	=5	=5	=5
!	!	!	!	!	!	!	!	!	!	!	!LO:SIC:s=8ff#:v
8D\	.	8d\	.	8ff#\L	.	8ff#\L	.	8d\	8f#\	8ff#\L	8ff\L
8r	.	8r	.	8dd\	.	8dd\	.	8r	8r	8dd\	8dd\
8r	.	8r	.	8ff#\J	.	8aa\J	.	8r	8r	8ff#\J	8aa\J
=6	=6	=6	=6	=6	=6	=6	=6	=6	=6	=6	=6
!LO:TX:t=P:problem=mixed beam	!	!LO:TX:t=P:problem=mixed beam	!	!	!	!	!	!	!	!	!
8G\L	.	8g\L	.	8ee\L	.	8gg\L	.	8e\L	8g\L	8ee\L	8gg\L
!	!	!	!	!	!	!	!	!	!	!	!LO:SIC:s=8ff#:v
8A\	.	8a\	.	8dd\	.	8ff#\	.	8d\	8f#\	8dd\	8ff\
8AA/J	.	8A/J	.	8cc#\J	.	8ee\J	.	8A\J	8e\J	8cc#\J	8ee\J
=7	=7	=7	=7	=7	=7	=7	=7	=7	=7	=7	=7
4D\	.	4d\	.	4dd\	.	4dd\	.	4F#/	8d\	4dd\	4dd\
.	.	.	.	.	.	.	.	.	8r	.	.
8r	.	8r	.	8r	.	8r	.	8r	8r	8r	8r
=8	=8	=8	=8	=8	=8	=8	=8	=8	=8	=8	=8
!	!	!	!	!	!	!	!	!	!	!LO:TX:a:t=4	!LO:TX:a:t=4
!	!	!	!	!	!	!	!	!	!	!LO:N:vis=00	!LO:N:vis=00
8A\L	.	8A/L	.	8a\L	.	8a\L	.	8A/	8e\	1.r	1.r
8B\	.	8B/	.	8b\	.	8b\	.	8r	8r	.	.
8c#\J	.	8c#/J	.	8cc#\J	.	8cc#\J	.	8r	8r	.	.
=9	=9	=9	=9	=9	=9	=9	=9	=9	=9	=9	=9
8d\L	.	8d\L	.	8dd\L	.	8dd\L	.	8d\	8f#\	.	.
8e\	.	8e\	.	8ee\	.	8ee\	.	8r	8r	.	.
8f#\J	.	8f#\J	.	8ff#\J	.	8ff#\J	.	8r	8r	.	.
=10	=10	=10	=10	=10	=10	=10	=10	=10	=10	=10	=10
8A\L	.	8A/L	.	8a\L	.	8a\L	.	8A/	8e\	.	.
8B\	.	8B/	.	8b\	.	8b\	.	8r	8r	.	.
8c#\J	.	8c#/J	.	8cc#\J	.	8cc#\J	.	8r	8r	.	.
=11	=11	=11	=11	=11	=11	=11	=11	=11	=11	=11	=11
8d\L	.	8d\L	.	8dd\L	.	8dd\L	.	8d\	8f#\	.	.
8e\	.	8e\	.	8ee\	.	8ee\	.	8r	8r	.	.
8f#\J	.	8f#\J	.	8ff#\J	.	8ff#\J	.	8r	8r	.	.
=12	=12	=12	=12	=12	=12	=12	=12	=12	=12	=12	=12
8A\L	.	8A/L	.	8a\L	.	8a\L	.	8A/	8e\	8a\L	8a\L
8B\	.	8B/	.	8b\	.	8b\	.	8r	8r	8b\	8b\
!	!	!	!	!	!	!	!	!	!	!	!LO:SIC:s=8cc#:v
8c#\J	.	8c#/J	.	8cc#\J	.	8cc#\J	.	8r	8r	8cc#\J	8cc\J
!LO:LB:g=original	!	!	!	!	!	!	!	!	!	!	!
=13	=13	=13	=13	=13	=13	=13	=13	=13	=13	=13	=13
8d\L	.	8d\L	.	8dd\L	.	8dd\L	.	8d\L	8f#\L	8dd\L	8dd\L
8A\	.	8a\	.	8aa\	.	8aa\	.	8a\	8a\	8aa\	8aa\
8G\J	.	8g\J	.	8gg\J	.	8gg\J	.	8g\J	8g\J	8gg\J	8gg\J
!	!	!	!	!	!	!	!	!LO:LB:g=original	!	!	!
=14	=14	=14	=14	=14	=14	=14	=14	=14	=14	=14	=14
!	!	!	!	!	!	!	!	!	!	!	!LO:SIC:s=8ff#:v
8F#\L	.	8f#\L	.	8ff#\L	.	8ff#\L	.	8f#\L	8f#\L	8ff#\L	8ff\L
8E\	.	8e\	.	8ee\	.	8ee\	.	8e\	8e\	8ee\	8ee\
8D\J	.	8d\J	.	8dd\J	.	8dd\J	.	8d\J	8d\J	8dd\J	8dd\J
!	!	!LO:LB:g=original	!	!	!	!	!	!	!	!	!
=15	=15	=15	=15	=15	=15	=15	=15	=15	=15	=15	=15
4A\	.	4a\	.	4aa 4a/	.	4aa 4a/	.	4A/	4e\	4aa\	4aa\
8r	.	8r	.	8r	.	8r	.	8r	8r	8r	8r
!	!	!	!	!	!	!	!	!	!	!LO:LB:g=original	!
=16	=16	=16	=16	=16	=16	=16	=16	=16	=16	=16	=16
*	*	*	*	*	*	*^	*	*	*	*	*
*	*	*tremolo	*	*	*	*	*	*	*	*	*	*
!	!	!	!	!	!	!	!	!	!	!	!	!LO:TX:a:t=11
!	!	!	!	!	!	!	!	!	!	!	!LO:N:vis=00	!LO:N:vis=00
8A\L	.	8a\L	.	8ee\L	.	4.a\	8ccc#/L	.	4A/	4e\	1.r	1.r
8A\	.	8a\	.	8dd\	.	.	8bb/	.	.	.	.	.
8A\J	.	8a\J	.	8cc#\J	.	.	8aa/J	.	8r	8r	.	.
*	*	*	*	*	*	*v	*v	*	*	*	*	*
!	!	!	!	!LO:LB:g=original	!	!	!	!	!LO:LB:g=original	!	!
=17	=17	=17	=17	=17	=17	=17	=17	=17	=17	=17	=17
*tremolo	*	*	*	*	*	*	*	*	*	*	*
!	!	!	!	!	!	!	!	!	!LO:TX:a:t=1	!	!
8E\L	.	8e\L	.	8b/L	.	8gg#X\L	.	4.r	4.r	.	.
8E\	.	8e\	.	8a/	.	8ff#\	.	.	.	.	.
8E\J	.	8e\J	.	8g#X/J	.	8ee\J	.	.	.	.	.
!	!	!	!	!	!	!LO:LB:g=original	!	!	!	!	!
=18	=18	=18	=18	=18	=18	=18	=18	=18	=18	=18	=18
!	!	!	!	!LO:SIC:s=8g#:v	!	!	!	!	!	!	!
8E\L	.	8e\L	.	8bL 8g/	.	8dd\L	.	8e\L	8e\L	.	.
8E\	.	8e\	.	8a/	.	8cc#\	.	8e\	8e\	.	.
8E\J	.	8e\J	.	8g/J	.	8b\J	.	8e\J	8e\J	.	.
*Xtremolo	*	*	*	*	*	*	*	*	*	*	*
=19	=19	=19	=19	=19	=19	=19	=19	=19	=19	=19	=19
4AA/	.	4A/	.	4a/	.	4cc#\	.	4A/	4e\	.	.
8r	.	8r	.	8r	.	8r	.	8r	8r	.	.
=20	=20	=20	=20	=20	=20	=20	=20	=20	=20	=20	=20
*	*	*	*	*	*	*^	*	*	*	*	*
!	!	!	!	!	!	!	!	!	!	!	!LO:N:vis=00	!LO:N:vis=00
8A\L	.	8a\L	.	8ee\L	.	4.a\	8ccc#/L	.	4A/	4e\	1.r	1.r
8A\	.	8a\	.	8dd\	.	.	8bb/	.	.	.	.	.
8A\J	.	8a\J	.	8cc#\J	.	.	8aa/J	.	8r	8r	.	.
*	*	*	*	*	*	*v	*v	*	*	*	*	*
=21	=21	=21	=21	=21	=21	=21	=21	=21	=21	=21	=21
*tremolo	*	*	*	*	*	*	*	*	*	*	*
8E\L	.	8e\L	.	8b/L	.	8gg#X\L	.	4.r	4.r	.	.
8E\	.	8e\	.	8a/	.	8ff#\	.	.	.	.	.
8E\J	.	8e\J	.	8g#X/J	.	8ee\J	.	.	.	.	.
=22	=22	=22	=22	=22	=22	=22	=22	=22	=22	=22	=22
8E\L	.	8e\L	.	8b/L	.	8dd\L	.	8e\L	8e\L	.	.
8E\	.	8e\	.	8a/	.	8cc#\	.	8e\	8e\	.	.
!	!	!	!	!LO:SIC:s=8g#:v	!	!	!	!	!	!	!
8E\J	.	8e\J	.	8g/J	.	8b\J	.	8e\J	8e\J	.	.
=23	=23	=23	=23	=23	=23	=23	=23	=23	=23	=23	=23
8AA/L	.	8A/L	.	8a\L	.	8cc#\L	.	8A/	8e\	.	.
8AA/	.	8A/	.	8b\	.	8dd\	.	8r	8r	.	.
8AA/J	.	8A/J	.	8cc#\J	.	8ee\J	.	8r	8r	.	.
=24	=24	=24	=24	=24	=24	=24	=24	=24	=24	=24	=24
!	!	!	!	!	!	!	!	!	!	!LO:N:vis=0	!LO:N:vis=0
8D\L	.	8d\L	.	8dd\L	.	8ff#\L	.	8d\	8f#\	2.r	2.r
8D\	.	8d\	.	8ee\	.	8gg#X\	.	8r	8r	.	.
8D\J	.	8d\J	.	8ff#\J	.	8aa\J	.	8r	8r	.	.
=25	=25	=25	=25	=25	=25	=25	=25	=25	=25	=25	=25
8E\L	.	8e\L	.	8cc#\L	.	8aa\L	.	8e\L	8e\L	.	.
8E\	.	8e\	.	8a\	.	8cc#\	.	8e\	8e\	.	.
8E\J	.	8e\J	.	8cc#\J	.	8ee\J	.	8e\J	8e\J	.	.
=26	=26	=26	=26	=26	=26	=26	=26	=26	=26	=26	=26
8E\L	.	8e\L	.	8b/L	.	8dd\L	.	8e\L	8e\L	4.r	4.r
8E\	.	8e\	.	8a/	.	8cc#\	.	8e\	8e\	.	.
8E\J	.	8e\J	.	8g#X/J	.	8b\J	.	8e\J	8e\J	.	.
*Xtremolo	*	*	*	*	*	*	*	*	*	*	*
!	!	!	!	!	!	!	!	!	!	!	!LO:LB:g=original
=27	=27	=27	=27	=27	=27	=27	=27	=27	=27	=27	=27
*	*	*	*	*	*	*^	*	*	*	*	*
8A\L	.	8a\L	.	8a/	.	8a/	8ryy	.	8A/	8e\	8r	8r
8A\	.	8a\	.	8eeL 8cc#/	.	4a\	8aa/L	.	8r	8r	8cc#\L	8aa\L
!	!	!	!	!	!	!	!	!	!	!	!	!LO:SIC:s=8ccc#:v
8A\J	.	8a\J	.	8eeJ 8cc#/	.	.	8ccc#/J	.	8r	8r	8ee\J	8ccc\J
=28	=28	=28	=28	=28	=28	=28	=28	=28	=28	=28	=28	=28
*	*	*	*	*^	*	*	*	*	*	*	*	*
*tremolo	*	*	*	*	*	*	*	*	*	*	*	*	*
8A\L	.	8a\L	.	8ee/	8cc#\	.	4.a\	8aa/	.	8A/	8e\	8cc#\L	8aa\L
8A\	.	8a\	.	8ee/L	8cc#\L	.	.	8aa/L	.	8r	8r	8cc#\	8aa\
!	!	!	!	!	!	!	!	!	!	!	!	!	!LO:SIC:s=8ccc#:v
8A\J	.	8a\J	.	8ee/J	8cc#\J	.	.	8ccc#/J	.	8r	8r	8ee\J	8ccc\J
*Xtremolo	*	*	*	*	*	*	*	*	*	*	*	*	*
*	*	*	*	*	*	*	*v	*v	*	*	*	*	*
=29	=29	=29	=29	=29	=29	=29	=29	=29	=29	=29	=29	=29
!LO:TX:t=P:problem=mixed beam	!	!	!	!	!	!	!	!	!	!	!	!
8A\L	.	8a\L	.	8ee/	8cc#\	.	8aa 8a/	.	8A/L	8e\L	8cc#\L	8aa\L
!	!	!	!	!	!	!	!	!	!	!	!	!LO:SIC:s=8cc#:v
8C#/	.	8c#\	.	8cc#\L	4ryy	.	8cc#\L	.	8A/	8e\	8cc#\	8cc\
8E/J	.	8e\J	.	8ee\J	.	.	8ee\J	.	8A/J	8e\J	8ee\J	8ee\J
*	*	*	*	*v	*v	*	*	*	*	*	*	*
!!LO:LB:g=original	!	!	!	!	!	!	!	!LO:LB:g=original	!	!	!
=30	=30	=30	=30	=30	=30	=30	=30	=30	=30	=30	=30
8D/L	.	8d\L	.	8dd\L	.	8dd\L	.	8d\L	8f#\L	8dd\L	8dd\L
8BB/	.	8B\	.	8b\	.	8b\	.	8d\	8d\	8b\	8b\
8E/J	.	8e\J	.	8ee\J	.	8ee\J	.	8e\J	8e\J	8ee\J	8ee\J
=31	=31	=31	=31	=31	=31	=31	=31	=31	=31	=31	=31
*	*	*	*	*^	*	*^	*	*	*	*	*
8A\L	.	8a\L	.	8ee/	8cc#\	.	4.a\	8aa/	.	8A/	8e\	8cc#\L	8aa\L
8A\	.	8a\	.	8ee/L	8cc#\L	.	.	8aa/L	.	8r	8r	8cc#\	(8aa\
!	!	!	!	!	!	!	!	!	!	!	!	!	!LO:SIC:s=8ccc#:v
8A\J	.	8a\J	.	8ee/J	8cc#\J	.	.	8ccc#/J	.	8r	8r	8ee\J	8ccc\J)
!	!	!	!	!LO:LB:g=original	!LO:LB:g=original	!	!	!	!	!	!	!	!
=32	=32	=32	=32	=32	=32	=32	=32	=32	=32	=32	=32	=32	=32
*tremolo	*	*	*	*	*	*	*	*	*	*	*	*	*
8A\L	.	8a\L	.	8ee/	8cc#\	.	4.a\	8aa/	.	8A/	8e\	8cc#\L	8aa\L
8A\	.	8a\	.	8ee/L	8cc#\L	.	.	8aa/L	.	4r	8r	8cc#\	(8aa\
!	!	!	!	!	!	!	!	!	!	!	!	!	!LO:SIC:s=8ccc#:v
8A\J	.	8a\J	.	8ee/J	8cc#\J	.	.	8ccc#/J	.	.	8r	8ee\J	8ccc\J)
*	*	*Xtremolo	*	*	*	*	*	*	*	*	*	*	*
=33	=33	=33	=33	=33	=33	=33	=33	=33	=33	=33	=33	=33	=33
!LO:TX:t=P:problem=mixed beam	!	!	!	!	!	!	!	!	!	!	!	!	!
8A\L	.	8a\L	.	8ee/	8cc#\	.	8a\	8aa/	.	8A/L	8e\L	8cc#\L	8aa\L
!	!	!	!	!	!	!	!	!	!	!	!	!	!LO:SIC:s=8cc#:v
8C#/	.	8c#\	.	8cc#\L	4ryy	.	8cc#\L	8ryy	.	8A/	8e\	8cc#\	8cc\
8E/J	.	8e\J	.	8ee\J	.	.	8ee\J	8ryy	.	8A/J	8e\J	8ee\J	8ee\J
*	*	*	*	*v	*v	*	*	*	*	*	*	*	*
*	*	*	*	*	*	*v	*v	*	*	*	*	*
!	!	!	!	!	!	!LO:LB:g=original	!	!	!	!	!
=34	=34	=34	=34	=34	=34	=34	=34	=34	=34	=34	=34
8D/L	.	8d\L	.	8dd\L	.	8dd\L	.	8d\L	8f#\L	8dd\L	8dd\L
8BB/	.	8B\	.	8b\	.	8b\	.	8d\	8d\	8b\	8b\
8E/J	.	8e\J	.	8ee\J	.	8ee\J	.	8e\J	8e\J	8ee\J	8ee\J
!	!	!	!	!	!	!	!	!	!LO:LB:g=original	!	!
=35	=35	=35	=35	=35	=35	=35	=35	=35	=35	=35	=35
*	*	*	*	*^	*	*	*	*	*	*	*
!	!	!	!	!	!	!	!	!	!	!	!	!LO:TX:t=P:problem=mixed beam
8AA/L	.	8A/L	.	8a/	8ryy	.	8a/	.	8A/L	8e\L	8a\L	8a/L
8AA/	.	8A/	.	8ee/L	8cc#\L	.	8aaL 8a/	.	8A/	8e\	8cc#\	8aa\
8AA/J	.	8A/J	.	8ee/J	8cc#\J	.	8aaJ 8a/	.	8A/J	8e\J	8cc#\J	8aa\J
!	!	!LO:LB:g=original	!	!	!	!	!	!	!	!	!	!
=36	=36	=36	=36	=36	=36	=36	=36	=36	=36	=36	=36	=36
8AA/L	.	8A/L	.	8ee/L	8cc#\L	.	8aaL 8a/	.	8A/L	8e\L	8cc#\L	8aa\L
8AA/	.	8A/	.	8ee/	8cc#\	.	8aa 8a/	.	8A/	8e\	8cc#\	8aa\
8AA/J	.	8A/J	.	8ee/J	8cc#\J	.	8aaJ 8a/	.	8A/J	8e\J	8cc#\J	8aa\J
*Xtremolo	*	*	*	*	*	*	*	*	*	*	*	*
=37	=37	=37	=37	=37	=37	=37	=37	=37	=37	=37	=37	=37
4AA/	.	4A/	.	4ee/	4cc#\	.	4aa 4a/	.	4A/	4e\	4cc#\	4aa\
8r	.	8r	.	8r	8ryy	.	8r	.	8r	8r	8r	8r
*	*	*	*	*v	*v	*	*	*	*	*	*	*
=38	=38	=38	=38	=38	=38	=38	=38	=38	=38	=38	=38
*	*	*k[]	*	*k[]	*	*k[]	*	*	*	*	*
*	*	*	*	*^	*	*	*	*	*	*	*
!	!	!	!	!	!	!	!	!	!LO:TX:t=P:problem=nie wpisana zmiana tonacji	!LO:TX:a:t=30	!LO:TX:t=P:problem=nie wpisana zmiana tonacji	!
!LO:TX:a:t=2	!	!	!LO:DY:t=pn	!	!	!	!	!	!LO:TX:a:t=30	!LO:TX:t=P:problem=nie wpisana zmiana tonacji	!LO:TX:a:t=30	!LO:TX:a:t=30
!LO:N:vis=0	!	!	!	!	!	!	!	!	!LO:N:vis=00	!LO:N:vis=00	!LO:N:vis=00	!LO:N:vis=00
2.r	.	8d\L	p	8d/L	4.ryy	p	8aa\L	p	1.r	1.r	1.r	1.r
.	.	8f\	.	8f/	.	.	8ff\	.	.	.	.	.
.	.	8a\J	.	8a/J	.	.	8dd\J	.	.	.	.	.
*	*	*	*	*v	*v	*	*	*	*	*	*	*
=39	=39	=39	=39	=39	=39	=39	=39	=39	=39	=39	=39
.	.	8d\L	.	8d/L	.	8aa\L	.	.	.	.	.
.	.	8f\	.	8f/	.	8ff\	.	.	.	.	.
.	.	8a\J	.	8a/J	.	8dd\J	.	.	.	.	.
=40	=40	=40	=40	=40	=40	=40	=40	=40	=40	=40	=40
!	!LO:DY:t=for	!	!LO:DY:t=for	!	!	!	!	!	!	!	!
4.G\	f	4.e\	f	4.b-X\	f	4.cc#X\	f	.	.	.	.
=41	=41	=41	=41	=41	=41	=41	=41	=41	=41	=41	=41
8F\	.	8f\	.	8a/	.	8dd\	.	.	.	.	.
8r	.	4r	.	8r	.	8r	.	.	.	.	.
8r	.	.	.	8r	.	8r	.	.	.	.	.
=42	=42	=42	=42	=42	=42	=42	=42	=42	=42	=42	=42
!LO:TX:a:t=2.	!	!	!	!	!	!	!	!	!	!	!
!LO:N:vis=0	!	!	!LO:DY:t=pn	!	!	!	!	!LO:N:vis=00	!LO:N:vis=00	!LO:N:vis=00	!LO:N:vis=00
2.r	.	8d\L	p	8d/L	.	8aa\L	p	1.r	1.r	1.r	1.r
.	.	8f\	.	8f/	.	8ff\	.	.	.	.	.
.	.	8a\J	.	8a/J	.	8dd\J	.	.	.	.	.
=43	=43	=43	=43	=43	=43	=43	=43	=43	=43	=43	=43
.	.	8d\L	.	8d/L	.	8gg\L	.	.	.	.	.
.	.	8f\	.	8f/	.	8ff\	.	.	.	.	.
.	.	8a\J	.	8a/J	.	8dd\J	.	.	.	.	.
=44	=44	=44	=44	=44	=44	=44	=44	=44	=44	=44	=44
*	*	*	*	*^	*	*^	*	*	*	*	*
!	!LO:DY:rj:t=for	!	!LO:DY:t=for	!	!	!	!	!	!	!	!	!	!
4.C#X/	f	4.c#X\	f	4.ee/	4.a\	f	4.a\	4.gg/	f	.	.	.	.
*	*	*	*	*v	*v	*	*	*	*	*	*	*	*
*	*	*	*	*	*	*v	*v	*	*	*	*	*
=45	=45	=45	=45	=45	=45	=45	=45	=45	=45	=45	=45
8D/	.	8d\	.	8dd\	.	8ff 8a/	.	.	.	.	.
8r	.	4r	.	8r	.	8r	.	.	.	.	.
8r	.	.	.	8r	.	8r	.	.	.	.	.
=46	=46	=46	=46	=46	=46	=46	=46	=46	=46	=46	=46
!LO:TX:a:t=20	!	!	!	!	!	!	!	!	!	!	!
!LO:N:vis=00	!	!	!LO:DY:t=pn	!	!	!	!	!LO:N:vis=00	!LO:N:vis=00	!LO:N:vis=00	!LO:N:vis=00
1.r	.	8d\L	p	8d/L	p	8aa\L	p	1.r	1.r	1.r	1.r
.	.	8f\	.	8f/	.	8ff\	.	.	.	.	.
.	.	8a\J	.	8a/J	.	8dd\J	.	.	.	.	.
!	!	!	!	!LO:LB:g=original	!	!	!	!	!	!	!
=47	=47	=47	=47	=47	=47	=47	=47	=47	=47	=47	=47
.	.	8d\L	.	8d/L	.	8aa\L	.	.	.	.	.
.	.	8f\	.	8f/	.	8ff\	.	.	.	.	.
.	.	8a\J	.	8a/J	.	8dd\J	.	.	.	.	.
=48	=48	=48	=48	=48	=48	=48	=48	=48	=48	=48	=48
!	!	!	!LO:DY:t=fnu	!	!	!	!	!	!	!	!
.	.	8r	f	8r	.	16bb\LL	f	.	.	.	.
.	.	.	.	.	.	16aa\	.	.	.	.	.
.	.	8g\L	.	8g/L	.	16bb\	.	.	.	.	.
.	.	.	.	.	.	16aa\JJ	.	.	.	.	.
.	.	8f\J	.	8f/J	.	8bb\	.	.	.	.	.
=49	=49	=49	=49	=49	=49	=49	=49	=49	=49	=49	=49
.	.	8e\L	.	8e/L	.	4.r	.	.	.	.	.
.	.	8f\	.	8f/	.	.	.	.	.	.	.
.	.	8d\J	.	8d/J	.	.	.	.	.	.	.
=50	=50	=50	=50	=50	=50	=50	=50	=50	=50	=50	=50
!LO:N:vis=00	!	!	!	!	!	!	!	!LO:N:vis=00	!LO:N:vis=00	!LO:N:vis=00	!LO:N:vis=00
1.r	.	8c\L	.	8c/L	.	8gg\L	p	1.r	1.r	1.r	1.r
!	!	!	!LO:DY:t=pia	!	!	!	!	!	!	!	!
.	.	8e\	p	8e/	.	8ee\	.	.	.	.	.
.	.	8g\J	.	8g/J	.	8cc\J	.	.	.	.	.
=51	=51	=51	=51	=51	=51	=51	=51	=51	=51	=51	=51
.	.	8c\L	.	8c/L	.	8gg\L	.	.	.	.	.
.	.	8e\	.	8e/	.	8ee\	.	.	.	.	.
.	.	8g\J	.	8g/J	.	8cc\J	.	.	.	.	.
!	!	!LO:LB:g=original	!	!	!	!LO:LB:g=original	!	!	!	!	!
=52	=52	=52	=52	=52	=52	=52	=52	=52	=52	=52	=52
.	.	8r	.	8r	.	(16aa\LL	.	.	.	.	.
.	.	.	.	.	.	16gg#X\	.	.	.	.	.
!	!	!	!LO:DY:t=for	!	!	!	!	!	!	!	!
.	.	8f\L	f	8f/L	.	16aa\	.	.	.	.	.
.	.	.	.	.	.	16gg#\JJ)	.	.	.	.	.
.	.	8e\J	.	8e/J	.	8aa\	.	.	.	.	.
=53	=53	=53	=53	=53	=53	=53	=53	=53	=53	=53	=53
.	.	8d\L	.	8d/L	.	4.r	.	.	.	.	.
.	.	8e\	.	8e/	.	.	.	.	.	.	.
.	.	8c\J	.	8c/J	.	.	.	.	.	.	.
=54	=54	=54	=54	=54	=54	=54	=54	=54	=54	=54	=54
!LO:N:vis=00	!	!	!	!	!	!	!	!LO:N:vis=00	!LO:N:vis=00	!LO:N:vis=00	!LO:N:vis=00
1.r	.	8B-X/L	p	8B-X/L	.	8ff\L	p	1.r	1.r	1.r	1.r
.	.	8d/	.	8d/	.	8dd\	.	.	.	.	.
.	.	8f/J	.	8f/J	.	8b-X\J	.	.	.	.	.
=55	=55	=55	=55	=55	=55	=55	=55	=55	=55	=55	=55
!	!	!	!	!LO:SIC:s=8B-:v	!	!	!	!	!	!	!
.	.	8B-X/L	.	8B/L	.	8ff\L	.	.	.	.	.
.	.	8d/	.	8d/	.	8dd\	.	.	.	.	.
!	!	!	!LO:DY:t=for	!	!	!LO:SIC:8b-:v	!	!	!	!	!
.	.	8f/J	f	8f/J	.	8b\J	.	.	.	.	.
=56	=56	=56	=56	=56	=56	=56	=56	=56	=56	=56	=56
.	.	8r	.	8r	.	16gg\LL	f	.	.	.	.
.	.	.	.	.	.	16ff\	.	.	.	.	.
.	.	8e\L	.	8e/L	.	16gg\	.	.	.	.	.
.	.	.	.	.	.	16ff\JJ	.	.	.	.	.
.	.	8d\J	.	8d/J	.	8gg\	.	.	.	.	.
=57	=57	=57	=57	=57	=57	=57	=57	=57	=57	=57	=57
.	.	8c#X/L	.	8c#X/L	.	4.r	.	.	.	.	.
.	.	8d/	.	8d/	.	.	.	.	.	.	.
!	!	!	!	!LO:SIC:s=8B-:v	!	!	!	!	!	!	!
.	.	8B-X/J	.	8B/J	.	.	.	.	.	.	.
=58	=58	=58	=58	=58	=58	=58	=58	=58	=58	=58	=58
!LO:N:vis=00	!	!	!LO:DY:t=pn	!	!	!	!	!LO:N:vis=00	!LO:N:vis=00	!LO:N:vis=00	!LO:N:vis=00
1.r	.	8A/L	p	8A/L	.	8ee\L	p	1.r	1.r	1.r	1.r
!	!	!	!	!LO:TX:b:t=P:problem=# below	!	!	!	!	!	!	!
.	.	8c#X/	.	8c#X/	.	8cc#X\	.	.	.	.	.
.	.	8e/J	.	8e/J	.	8a\J	.	.	.	.	.
=59	=59	=59	=59	=59	=59	=59	=59	=59	=59	=59	=59
.	.	8A/L	.	8A/L	.	8ee\L	.	.	.	.	.
!	!	!LO:SIC:s=c#:v	!	!LO:TX:b:t=P:problem=# below	!	!LO:SIC:s=8cc#:v	!	!	!	!	!
.	.	8c/	.	8c#X/	.	8cc\	.	.	.	.	.
.	.	8e/J	.	8e/J	.	8a\J	.	.	.	.	.
=60	=60	=60	=60	=60	=60	=60	=60	=60	=60	=60	=60
.	.	4.d\	.	4.d/	.	(8ff\L	.	.	.	.	.
.	.	.	.	.	.	8aa\	.	.	.	.	.
.	.	.	.	.	.	8gg\J	.	.	.	.	.
!	!	!	!	!LO:LB:g=original	!	!	!	!	!	!	!
=61	=61	=61	=61	=61	=61	=61	=61	=61	=61	=61	=61
.	.	4.B-X/	.	4.g#X/	.	8ff\L)	.	.	.	.	.
.	.	.	.	.	.	8ee\	.	.	.	.	.
.	.	.	.	.	.	8dd\J	.	.	.	.	.
=62	=62	=62	=62	=62	=62	=62	=62	=62	=62	=62	=62
!LO:N:vis=00	!	!	!	!	!	!	!	!LO:N:vis=00	!LO:N:vis=00	!LO:N:vis=00	!LO:N:vis=00
1.r	.	4.A/	.	4.a/	.	(8cc#X\L	.	1.r	1.r	1.r	1.r
.	.	.	.	.	.	8aa\	.	.	.	.	.
.	.	.	.	.	.	8gg\J	.	.	.	.	.
=63	=63	=63	=63	=63	=63	=63	=63	=63	=63	=63	=63
.	.	4.B-X/	.	4.g#X/	.	8ff\L	.	.	.	.	.
.	.	.	.	.	.	8ee\	.	.	.	.	.
.	.	.	.	.	.	8dd\J)	.	.	.	.	.
=64	=64	=64	=64	=64	=64	=64	=64	=64	=64	=64	=64
.	.	4.A/	.	4.a/	.	(8cc#X\L	.	.	.	.	.
.	.	.	.	.	.	8aa\	.	.	.	.	.
.	.	.	.	.	.	8gg\J)	.	.	.	.	.
=65	=65	=65	=65	=65	=65	=65	=65	=65	=65	=65	=65
.	.	4.B-X/	.	4.g#X/	.	(8ff\L	.	.	.	.	.
.	.	.	.	.	.	8ee\	.	.	.	.	.
.	.	.	.	.	.	8dd\J)	.	.	.	.	.
!LO:LB:g=original	!	!	!	!	!	!	!	!	!	!	!
=66	=66	=66	=66	=66	=66	=66	=66	=66	=66	=66	=66
!	!	!	!LO:DY:t=for	!	!	!	!	!LO:N:vis=0	!LO:N:vis=0	!LO:N:vis=0	!LO:N:vis=0
8r	.	8A/L	f	8a/L	.	8aa 8a/	.	2.r	2.r	2.r	2.r
8B\L	.	8bn\	.	8bn/	.	8bn/L	.	.	.	.	.
8A\J	.	8a\J	.	8a/J	.	8a/J	.	.	.	.	.
=67	=67	=67	=67	=67	=67	=67	=67	=67	=67	=67	=67
8G\L	.	8g\L	.	8g/L	.	8g/L	.	.	.	.	.
8F#\	.	8f#X\	.	8f#X/	.	8f#X/	.	.	.	.	.
8E\J	.	8e\J	.	8e/J	.	8e/J	.	.	.	.	.
!	!	!LO:LB:g=original	!	!	!	!	!	!	!	!LO:LB:g=original	!LO:LB:g=original
=68	=68	=68	=68	=68	=68	=68	=68	=68	=68	=68	=68
*	*	*k[f#c#]	*	*k[f#c#]	*	*k[f#c#]	*	*k[f#c#]	*k[f#c#]	*	*
!	!	!	!	!	!	!LO:TX:a:t=P:problem=krzyżyki jeden nad drugim	!	!	!	!	!
8D\L	.	8f#X\L	.	4.dd 4.d/	.	4.dd 4.d/	.	4.D/	4.d\	4.dd\	4.dd\
8E\	.	8g\	.	.	.	.	.	.	.	.	.
8F#\J	.	8a\J	.	.	.	.	.	.	.	.	.
!	!	!	!	!	!	!LO:LB:g=original	!	!	!	!	!
=69	=69	=69	=69	=69	=69	=69	=69	=69	=69	=69	=69
8C#/L	.	8e\L	.	4.aa 4.a/	.	4.aa 4.a/	.	4.A/	4.a\	4.aa\	4.aa\
8BB/	.	8d\	.	.	.	.	.	.	.	.	.
8AA/J	.	8c#\J	.	.	.	.	.	.	.	.	.
=70	=70	=70	=70	=70	=70	=70	=70	=70	=70	=70	=70
!	!	!	!	!	!	!	!	!	!	!	!LO:SIC:s=8ff#:v
8D\	.	8d\	.	8ff#\L	.	8ff#\L	.	8d\	8f#\	8ff#\L	8ff\L
8r	.	8r	.	8dd\	.	8dd\	.	8r	8r	8dd\	8dd\
8r	.	8r	.	8aa\J	.	8aa\J	.	8r	8r	8aa\J	8aa\J
=71	=71	=71	=71	=71	=71	=71	=71	=71	=71	=71	=71
!	!	!	!	!	!	!	!	!	!	!	!LO:SIC:s=8ff#:v
8D\	.	8d\	.	8ff#\L	.	8ff#\L	.	8d\	8f#\	8ff#\L	8ff\L
8r	.	8r	.	8dd\	.	8dd\	.	8r	8r	8dd\	8dd\
8r	.	8r	.	8aa\J	.	8aa\J	.	8r	8r	8aa\J	8aa\J
=72	=72	=72	=72	=72	=72	=72	=72	=72	=72	=72	=72
!	!	!	!	!	!	!	!	!	!	!	!LO:SIC:s=8ff#:v
8D\	.	8d\	.	8ff#\L	.	8ff#\L	.	8d\	8f#\	8ff#\L	8ff\L
8r	.	8r	.	8dd\	.	8dd\	.	8r	8r	8dd\	8dd\
8r	.	8r	.	8ff#\J	.	8aa\J	.	8r	8r	8ff#\J	8aa\J
=73	=73	=73	=73	=73	=73	=73	=73	=73	=73	=73	=73
!LO:TX:t=P:problem=mixed beam	!	!LO:TX:t=P:problem=mixed beam	!	!	!	!	!	!LO:TX:t=P:problem=mixed beam	!	!	!
8G\L	.	8g\L	.	8ee\L	.	8gg\L	.	8e\L	8g\L	8ee\L	8gg\L
!	!	!	!	!	!	!	!	!	!	!	!LO:SIC:s=8ff#:v
8A\	.	8a\	.	8dd\	.	8ff#\	.	8d\	8f#\	8dd\	8ff\
8AA/J	.	8A/J	.	8cc#\J	.	8ee\J	.	8A/J	8e\J	8cc#\J	8ee\J
!	!	!	!	!	!	!	!	!LO:LB:g=original	!	!	!
=74	=74	=74	=74	=74	=74	=74	=74	=74	=74	=74	=74
4D\	.	4d\	.	4dd\	.	4dd\	.	4F#/	4.d\	4dd\	4dd\
8r	.	8r	.	8r	.	8r	.	8r	.	8r	8r
=75	=75	=75	=75	=75	=75	=75	=75	=75	=75	=75	=75
!	!	!	!	!	!	!	!	!	!	!LO:TX:a:t=4	!LO:TX:a:t=4
!	!	!	!	!	!	!	!	!	!	!LO:N:vis=00	!LO:N:vis=00
8A\L	.	8A/L	.	8a\L	.	8a\L	.	8A/	8e\	1.r	1.r
8B\	.	8B/	.	8b\	.	8b\	.	8r	8r	.	.
8c#\J	.	8c#/J	.	8cc#\J	.	8cc#\J	.	8r	8r	.	.
=76	=76	=76	=76	=76	=76	=76	=76	=76	=76	=76	=76
8d\L	.	8d\L	.	8dd\L	.	8dd\L	.	8d\	8f#\	.	.
8e\	.	8e\	.	8ee\	.	8ee\	.	8r	8r	.	.
8f#\J	.	8f#\J	.	8ff#\J	.	8ff#\J	.	8r	8r	.	.
!	!	!	!	!LO:LB:g=original	!	!	!	!	!	!	!
=77	=77	=77	=77	=77	=77	=77	=77	=77	=77	=77	=77
8A\L	.	8A/L	.	8a\L	.	8a\L	.	8A/	8e\	.	.
8B\	.	8B/	.	8b\	.	8b\	.	8r	8r	.	.
8c#\J	.	8c#/J	.	8cc#\J	.	8cc#\J	.	8r	8r	.	.
=78	=78	=78	=78	=78	=78	=78	=78	=78	=78	=78	=78
8d\L	.	8d\L	.	8dd\L	.	8dd\L	.	8d\	8f#\	.	.
8e\	.	8e\	.	8ee\	.	8ee\	.	8r	8r	.	.
8f#\J	.	8f#\J	.	8ff#\J	.	8ff#\J	.	8r	8r	.	.
=79	=79	=79	=79	=79	=79	=79	=79	=79	=79	=79	=79
8A\L	.	8A/L	.	8a\L	.	8a\L	.	8A/	8e\	8a\L	8a\L
8B\	.	8B/	.	8b\	.	8b\	.	8r	8r	8b\	8b\
!	!	!	!	!	!	!	!	!	!	!	!LO:SIC:s=8cc#:v
8c#\J	.	8c#/J	.	8cc#\J	.	8cc#\J	.	8r	8r	8cc#\J	8cc\J
!LO:LB:g=original	!	!	!	!	!	!	!	!	!LO:LB:g=original	!	!
=80	=80	=80	=80	=80	=80	=80	=80	=80	=80	=80	=80
8d\L	.	8d\L	.	8dd\L	.	8dd\L	.	8d\L	8f#\L	8dd\L	8dd\L
8A\	.	8a\	.	8aa\	.	8aa\	.	8a\	8a\	8aa\	8aa\
8G\J	.	8g\J	.	8gg\J	.	8gg\J	.	8g\J	8g\J	8gg\J	8gg\J
=81	=81	=81	=81	=81	=81	=81	=81	=81	=81	=81	=81
!	!	!	!	!	!	!	!	!	!	!	!LO:SIC:s=8ff#:v
8F#\L	.	8f#\L	.	8ff#\L	.	8ff#\L	.	8f#\L	8f#\L	8ff#\L	8ff\L
8E\	.	8e\	.	8ee\	.	8ee\	.	8e\	8e\	8ee\	8ee\
8D\J	.	8d\J	.	8dd\J	.	8dd\J	.	8d\J	8d\J	8dd\J	8dd\J
=82	=82	=82	=82	=82	=82	=82	=82	=82	=82	=82	=82
4AA/	.	4A/	.	4aa 4a/	.	4aa 4a/	.	4A/	4e\	4aa\	4aa\
8r	.	8r	.	8r	.	8r	.	8r	8r	8r	8r
!	!	!LO:LB:g=original	!	!	!	!	!	!	!	!	!
=83	=83	=83	=83	=83	=83	=83	=83	=83	=83	=83	=83
!	!	!	!	!	!	!	!	!LO:TX:a:t=6	!LO:TX:a:t=6	!	!LO:TX:a:t=12
!	!	!	!	!	!	!	!	!LO:N:vis=00	!LO:N:vis=00	!LO:N:vis=00	!LO:N:vis=00
4C#/	.	4c#\	.	8gg\L	.	8bb\L	.	1.r	1.r	1.r	1.r
.	.	.	.	8ff#\	.	8aa\	.	.	.	.	.
8r	.	8r	.	8ee\J	.	8gg\J	.	.	.	.	.
=84	=84	=84	=84	=84	=84	=84	=84	=84	=84	=84	=84
4D/	.	4d\	.	8ee\L	.	8gg\L	.	.	.	.	.
.	.	.	.	8cc#\	.	8ee\	.	.	.	.	.
8r	.	8r	.	8ee\J	.	8ff#\J	.	.	.	.	.
=85	=85	=85	=85	=85	=85	=85	=85	=85	=85	=85	=85
4C#/	.	4c#\	.	8gg\L	.	8bb\L	.	.	.	.	.
.	.	.	.	8ff#\	.	8aa\	.	.	.	.	.
8r	.	8r	.	8ee\J	.	8gg\J	.	.	.	.	.
=86	=86	=86	=86	=86	=86	=86	=86	=86	=86	=86	=86
4D/	.	4d\	.	8ee\L	.	8gg\L	.	.	.	.	.
.	.	.	.	8cc#\	.	8ee\	.	.	.	.	.
8r	.	8r	.	8ee\J	.	8ff#\J	.	.	.	.	.
!	!	!	!	!	!	!LO:PB:g=original	!	!	!	!	!
=87	=87	=87	=87	=87	=87	=87	=87	=87	=87	=87	=87
!	!	!	!	!	!	!	!	!LO:N:vis=0	!LO:N:vis=0	!LO:N:vis=00	!LO:N:vis=00
8B\L	.	8b\L	.	8ddd\L	.	8ddd\L	.	2.r	2.r	1.r	1.r
8A\	.	8a\	.	8ccc#\	.	8ccc#\	.	.	.	.	.
8G\J	.	8g\J	.	8bb\J	.	8bb\J	.	.	.	.	.
=88	=88	=88	=88	=88	=88	=88	=88	=88	=88	=88	=88
8F#\L	.	8f#\L	.	8aa\L	.	8aa\L	.	.	.	.	.
8G\	.	8g\	.	8bb\	.	8bb\	.	.	.	.	.
8E\J	.	8e\J	.	8gg\J	.	8gg\J	.	.	.	.	.
=89	=89	=89	=89	=89	=89	=89	=89	=89	=89	=89	=89
!LO:TX:t=P:problem=mixed beam	!	!LO:TX:t=P:problem=mixed beam	!	!	!	!	!	!LO:TX:t=P:problem=mixed beam	!	!	!
8D\L	.	8d\L	.	8ff#\L	.	8ff#\L	.	8d\L	8f#\L	.	.
8A\	.	8a\	.	8ee\	.	8gg\	.	8e\	8g\	.	.
8AA/J	.	8A/J	.	8cc#\J	.	8ee\J	.	8A/J	8e\J	.	.
=90	=90	=90	=90	=90	=90	=90	=90	=90	=90	=90	=90
4D\	.	4d\	.	4dd\	.	4dd\	.	4F#/	4d\	.	.
8r	.	8r	.	8r	.	8r	.	8r	8r	.	.
=91	=91	=91	=91	=91	=91	=91	=91	=91	=91	=91	=91
!	!	!	!	!	!	!	!	!LO:TX:a:t=4	!LO:TX:a:t=4	!	!
!	!LO:DY:t=pn	!	!LO:DY:rj	!	!	!	!	!LO:N:vis=00	!LO:N:vis=00	!LO:N:vis=00	!LO:N:vis=00
(4.F#\	p	(4.f#\	p	4.dd\	.	(4aa\	p	1.r	1.r	1.r	1.r
.	.	.	.	.	.	8cccn\)	.	.	.	.	.
=92	=92	=92	=92	=92	=92	=92	=92	=92	=92	=92	=92
4G\)	.	4g\)	.	8dd\	.	4bb\	.	.	.	.	.
.	.	.	.	8r	.	.	.	.	.	.	.
8r	.	8r	.	8r	.	8r	.	.	.	.	.
!	!	!	!	!LO:LB:g=original	!	!	!	!	!	!	!
=93	=93	=93	=93	=93	=93	=93	=93	=93	=93	=93	=93
(4.A\	.	(4.a\	.	(4cc#\	.	(4ee\	.	.	.	.	.
.	.	.	.	8ee\)	.	8gg\)	.	.	.	.	.
=94	=94	=94	=94	=94	=94	=94	=94	=94	=94	=94	=94
4B\)	.	4b\)	.	4dd\	.	4ff#\	.	.	.	.	.
8r	.	8r	.	8r	.	8r	.	.	.	.	.
!LO:LB:g=original	!	!	!	!	!	!	!	!	!	!	!
=95	=95	=95	=95	=95	=95	=95	=95	=95	=95	=95	=95
!	!LO:DY:rj:t=for	!	!	!	!	!	!	!	!	!	!
8F#\L	f	8f#\L	f	8aa\L	.	8aa\L|	f	8d\	8f#\	8aa\L	8aa\L
!	!	!	!	!	!	!	!	!	!	!	!LO:SIC:s=8ff#:v
8F#\	.	8f#\	.	8ff#\	.	8ff#\|	.	8r	8r	8ff#\	8ff\
8F#\J	.	8f#\J	.	8dd\J	.	8dd\J|	.	8r	8r	8dd\J	8dd\J
=96	=96	=96	=96	=96	=96	=96	=96	=96	=96	=96	=96
*tremolo	*	*tremolo	*	*	*	*	*	*	*	*	*
8G\L	.	8g\L	.	8bb\L	.	8bb\L	.	8e\	8e\	8bb\L	8bb\L
8G\	.	8g\	.	8gg\	.	8gg\	.	8r	8r	8gg\	8gg\
8G\J	.	8g\J	.	8ee\J	.	8ee\J	.	8r	8r	8ee\J	8ee\J
!	!	!	!	!	!	!	!	!	!	!LO:LB:g=original	!LO:LB:g=original
=97	=97	=97	=97	=97	=97	=97	=97	=97	=97	=97	=97
!	!	!	!	!LO:TX:t=P:problem=kasownik nad nutą	!	!LO:TX:t=P:problem=kasownik na wysokości gg	!	!	!	!	!LO:SIC:s=8cc#:v
8A\L	.	4e\	.	4ccn\	.	4ccn\	.	8A/L	8e\L	4cc#t\	4ccT\
8A\	.	.	.	.	.	.	.	8A/	8e\	.	.
8A\J	.	16d\LL	.	16b\LL	.	16b\LL	.	8A/J	8e\J	16b\LL	16b\LL
*Xtremolo	*	*	*	*	*	*	*	*	*	*	*
!	!	!	!	!	!	!	!	!	!	!	!LO:SIC:s=16cc#:v
.	.	16e\JJ	.	16cc\JJ	.	16cc\JJ	.	.	.	16cc#\JJ	16cc\JJ
!	!	!	!	!	!	!	!	!LO:LB:g=original	!	!	!
=98	=98	=98	=98	=98	=98	=98	=98	=98	=98	=98	=98
4D\	.	4d\	.	4dd\	.	4dd\	.	4F#/	4d\	4dd\	4dd\
8r	.	8r	.	8r	.	8r	.	8r	8r	8r	8r
=99	=99	=99	=99	=99	=99	=99	=99	=99	=99	=99	=99
!	!	!	!	!	!	!	!	!LO:TX:a:t=4	!	!LO:TX:a:t=4	!LO:TX:a:t=4
!	!LO:DY:t=pn	!	!LO:DY:t=pn	!	!	!	!	!LO:N:vis=00	!LO:N:vis=00	!LO:N:vis=00	!LO:N:vis=00
(4.F#\	p	4.f#\	p	[4.dd\	.	(4aa\	p	1.r	1.r	1.r	1.r
.	.	.	.	.	.	8cccn\)	.	.	.	.	.
!	!	!LO:LB:g=original	!	!	!	!	!	!	!	!	!
=100	=100	=100	=100	=100	=100	=100	=100	=100	=100	=100	=100
4G\)	.	4g\	.	4dd\]	.	4bb\	.	.	.	.	.
8r	.	8r	.	8r	.	8r	.	.	.	.	.
=101	=101	=101	=101	=101	=101	=101	=101	=101	=101	=101	=101
(4.A\	.	4.a\	.	(4cc#\	.	(4ee\	.	.	.	.	.
.	.	.	.	8ee\)	.	8gg\)	.	.	.	.	.
=102	=102	=102	=102	=102	=102	=102	=102	=102	=102	=102	=102
4B\)	.	4b\	.	4dd\	.	4ff#\	.	.	.	.	.
8r	.	8r	.	8r	.	8r	.	.	.	.	.
=103	=103	=103	=103	=103	=103	=103	=103	=103	=103	=103	=103
!	!LO:DY:rj:t=for	!	!LO:DY:rj:t=for	!	!	!	!	!	!	!	!
8F#\L	f	8f#\L	f	8aa\L	.	8aa\L|	f	8d\	8f#\	8aa\L	8aa\L
!	!	!	!	!	!	!	!	!	!	!	!LO:SIC:s=8ff#:v
8F#\	.	8f#\	.	8ff#\	.	8ff#\|	.	8r	8r	8ff#\	8ff\
8F#\J	.	8f#\J	.	8dd\J	.	8dd\J|	.	8r	8r	8dd\J	8dd\J
!	!	!	!	!	!	!LO:LB:g=original	!	!	!	!	!
=104	=104	=104	=104	=104	=104	=104	=104	=104	=104	=104	=104
*tremolo	*	*	*	*	*	*	*	*	*	*	*
8G\L	.	8g\L	.	8bb\L	.	8bb\L|	.	8e\	8e\	8bb\L	8bb\L
8G\	.	8g\	.	8gg\	.	8gg\|	.	8r	8r	8gg\	8gg\
8G\J	.	8g\J	.	8ee\J	.	8ee\J|	.	8r	8r	8ee\J	8ee\J
=105	=105	=105	=105	=105	=105	=105	=105	=105	=105	=105	=105
!	!	!	!	!LO:TX:t=P:problem=kasownik nad nutą	!	!LO:TX:t=P:problem=kasownik nad nutą	!	!	!	!	!LO:SIC:s=8ff#:v
8A\L	.	4eT\	.	4ccn\	.	4ccn\	.	8A/L	8e\L	4cc#t\	4ccT\
8A\	.	.	.	.	.	.	.	8A/	8e\	.	.
8A\J	.	16d\LL	.	16b\LL	.	16b\LL	.	8A/J	8e\J	16b\LL	16b\LL
!	!	!	!	!	!	!	!	!	!	!	!LO:SIC:s=16cc#:v
.	.	16e\JJ	.	16cc\JJ	.	16cc\JJ	.	.	.	16cc#\JJ	16cc\JJ
*Xtremolo	*	*	*	*	*	*	*	*	*	*	*
=106	=106	=106	=106	=106	=106	=106	=106	=106	=106	=106	=106
4D\	.	4d\	.	8dd\L	.	8dd\L	.	4d\	4f#\	8dd\L	8dd\L
!	!	!	!	!	!	!	!	!	!	!	!LO:SIC:s=8ff#:v
.	.	.	.	8ff#\	.	8ff#\	.	.	.	8ff#\	8ff\
8r	.	8r	.	8aa\J	.	8aa\J	.	8r	8r	8aa\J	8aa\J
=107	=107	=107	=107	=107	=107	=107	=107	=107	=107	=107	=107
4D\	.	4d\	.	8dd\L	.	8dd\L	.	4d\	4f#\	8dd\L	8dd\L
!	!	!	!	!	!	!	!	!	!	!	!LO:SIC:s=8ff#:v
.	.	.	.	8ff#\	.	8ff#\	.	.	.	8ff#\	8ff\
8r	.	8r	.	8aa\J	.	8aa\J	.	8r	8r	8aa\J	8aa\J
!	!	!	!	!	!	!	!	!	!LO:LB:g=original	!	!
=108	=108	=108	=108	=108	=108	=108	=108	=108	=108	=108	=108
8D\L	.	8d\L	.	8dd\L	.	8dd\L	.	8D/L	8d\L	8dd\L	8dd\L
!	!	!	!	!	!	!	!	!	!	!	!LO:SIC:s=8ff#:v
8F#\	.	8f#\	.	8ff#\	.	8ff#\	.	8F#/	8f#\	8ff#\	8ff\
8A\J	.	8a\J	.	8aa\J	.	8aa\J	.	8A/J	8a\J	8aa\J	8aa\J
!LO:LB:g=original	!	!	!	!LO:LB:g=original	!	!	!	!	!	!	!
=109	=109	=109	=109	=109	=109	=109	=109	=109	=109	=109	=109
8d\L	.	8dd\L	.	8ddd\L	.	8ddd\L	.	8d/L	8dd\L	8ddd\L	8ddd\L
8A\	.	8a\	.	8aa\	.	8aa\	.	8A/	8a\	8aa\	8aa\
!	!	!	!	!	!	!	!	!	!	!	!LO:SIC:s=8ff#:v
8F#\J	.	8f#\J	.	8ff#\J	.	8ff#\J	.	8F#/J	8f#\J	8ff#\J	8ff\J
=110	=110	=110	=110	=110	=110	=110	=110	=110	=110	=110	=110
*	*	*	*	*	*	*^	*	*	*	*	*
8D\L	.	8d\L	.	8dd\L	.	8dd\	8ryy	.	4D/	4d\	8dd\L	8dd\L
!	!	!	!	!	!	!	!	!	!	!	!	!LO:SIC:s=8ff#:v
8D\	.	8d\	.	8dd\	.	4a\	8ff#/L	.	.	.	8dd\	(8ff\
8D\J	.	8d\J	.	8ff#\J	.	.	8aa/J	.	8r	8r	8ff#\J	8aa\J)
=111	=111	=111	=111	=111	=111	=111	=111	=111	=111	=111	=111	=111
8D\L	.	8d\L	.	8dd\	.	4.a\	8ff#/L	.	4D/	4f#\	8dd\L	8dd\L
!	!	!	!	!	!	!	!	!	!	!	!	!LO:SIC:s=8ff#:v
8D\	.	8d\	.	8dd\L	.	.	8ff#/	.	.	.	8dd\	(8ff\
8D\J	.	8d\J	.	8ff#\J	.	.	8gg/J	.	8r	8r	8ff#\J	8aa\J)
*	*	*Xtremolo	*	*	*	*	*	*	*	*	*	*
*	*	*	*	*	*	*v	*v	*	*	*	*	*
!	!	!	!	!	!	!	!	!	!	!	!LO:LB:g=original
=112	=112	=112	=112	=112	=112	=112	=112	=112	=112	=112	=112
!	!	!	!	!	!	!	!	!	!	!	!LO:SIC:s=4ff#:v
8D\L	.	8d\L	.	4ff# 4a 4d/	.	4ff# 4a 4d/	.	8D/L	8d\L	4dd\	4ff\
8F#\	.	8f#\	.	.	.	.	.	8F#/	8f#\	.	.
8A\J	.	8a\J	.	8r	.	8r	.	8A/J	8a\J	8r	8r
!	!	!	!	!	!	!	!	!	!	!LO:LB:g=original	!
=113	=113	=113	=113	=113	=113	=113	=113	=113	=113	=113	=113
!	!	!	!	!	!	!	!	!	!	!	!LO:SIC:s=4ff#:v
8D\L	.	8d\L	.	4ff# 4a 4d/	.	4ff# 4a 4d/	.	8D/L	8d\L	4dd\	4ff\
8F#\	.	8f#\	.	.	.	.	.	8F#/	8f#\	.	.
8A\J	.	8a\J	.	8r	.	8r	.	8A/J	8a\J	8r	8r
=114	=114	=114	=114	=114	=114	=114	=114	=114	=114	=114	=114
!	!	!	!	!	!	!	!	!	!	!	!LO:SIC:s=4ff#:v
4D\	.	4d\	.	4ff# 4a 4d/	.	4ff# 4a 4d/	.	4d\	4f#\	4dd\	4ff\
!LO:TX:b:i:t=Fine	!	!LO:TX:b:i:t=Fine	!	!	!	!	!	!LO:TX:b:t=Fine	!LO:TX:b:t=Fine	!LO:TX:b:t=Fine	!LO:TX:b:t=Fine
8r	.	8r	.	8r	.	8r	.	8r	8r	8r	8r
==	==	==	==	==	==	==	==	==	==	==	==
*-	*-	*-	*-	*-	*-	*-	*-	*-	*-	*-	*-
!!!system-decoration: [g1][g2][g3]s8
!!!AIN: 1 cor 2 empty 2 oboe 1 viola 2 violn
!!!ENC: Marta Lawrence
!!!END: 2020-10-24
!!!ENC: Anastazja Marusiak
!!!END: 2020-06-04
!!!RDF**kern: | = vertical stroke
